beaker-remove-outline.svg

<svg fill="currentColor" viewBox="0 0 24 24"><path d="m15.46 15.88 1.42-1.42L19 16.59l2.12-2.12 1.41 1.41L20.41 18l2.13 2.12-1.42 1.42L19 19.41l-2.12 2.12-1.41-1.41L17.59 18zM3 3h18v2c-1.1 0-2 .9-2 2v5c-.7 0-1.37.12-2 .34V5H7v2h5v1H7v1h3v1H7v1h3v1H7v1h5v1H7v1h3v1H7v3h6.08c.12.72.37 1.39.72 2H7a2 2 0 0 1-2-2V7a2 2 0 0 0-2-2z"/></svg>

<svg  viewBox="0 0 24 24" fill="currentColor"><path  d="M15.46 15.88L16.88 14.46L19 16.59L21.12 14.47L22.53 15.88L20.41 18L22.54 20.12L21.12 21.54L19 19.41L16.88 21.53L15.47 20.12L17.59 18L15.46 15.88M3 3H21V5C19.9 5 19 5.9 19 7V12C18.3 12 17.63 12.12 17 12.34V5H7V7H12V8H7V9H10V10H7V11H10V12H7V13H12V14H7V15H10V16H7V19H13.08C13.2 19.72 13.45 20.39 13.8 21H7C5.9 21 5 20.11 5 19V7C5 5.9 4.11 5 3 5V3Z"/></svg>
